X:10385
T:Martha's Waltz
R:waltz
C:Bruce Osborne  --  Feb.4 2001
M:3/4
L:1/8
K:F
A,A,B,|C3 FAc|af2 Acf|e3 GGA|B3 AGF|!
E3 FED|C3 DCB,|A,2A, B,CD|C3 A,A,B,|!
C3 FAc|af2 Acf|e3 GGA|B3 AGF|!
E3 FED|C2A2G2|F2F EFG|F3:|!
|:cAc|af2 cAc|ed2 GGA|B3 cdc|A3 cAc|!
af2 cAc|ed2 ggf|e3 cag|[A3f3]:|!
